icons/1_Primary/netcup.svg

<svg xmlns="http://www.w3.org/2000/svg" width="1024" height="1024" fill="none">
   <g clip-path="url(#a)">
      <path fill="#96DFD3" d="M512 1024c282.77 0 512-229.23 512-512S794.77 0 512 0 0 229.23 0 512s229.23 512 512 512Z"/>
      <path fill="#fff" d="M745.1 580.5h12v20.3h-36.3V475.5h-10.9v-20.3h72c14.5 0 21.6 7.3 21.6 22.1v60.3c0 14.4-7.4 21.7-22.3 21.7h-22.1V539h13.4c4.9 0 7.4-2.5 7.4-7.8v-47.7c0-5.3-2.5-8-7.1-8h-27.6v105h-.1Zm-45.9-21.3h-66.8c-14.5 0-21.8-7.3-21.8-21.9v-64.1h-10.7v-18h34.8v75.1c0 5.7 2.7 8.7 7.8 8.7H664v-83.8h24.1V539h11.1v20.2Zm-115.2 0h-74.6v-67.3c0-24.4 12.9-36.8 39-36.8h35.9V490h-20.7v-14.6h-16.9c-8.9 0-13.4 5-13.4 14.8v48.6H584v20.4Zm-93 0h-26.5c-11.8 0-17.6-6.4-17.6-18.9v-64.8h-13.4v-20.3h13.4v-31.9h23.8v31.9h20.1v20.3h-20.1v56.1c0 5.2 2.9 7.8 8.5 7.5h6.5c1.8 0 3.6 0 5.4-.2l-.1 20.3Zm-70.9-39.9h-53.7v13.5c0 4.1 2 6.2 5.8 6.2h45.2v20.3h-54.6c-13.4 0-20.1-6.6-20.1-20.1v-61.4c0-15.1 7.8-22.6 23.2-22.6h32.5c14.3 0 21.4 7.1 21.6 21.5v42.6h.1Zm-53.7-20.1h30.3v-17.1c0-4.3-2-6.6-6-6.6h-17.8c-4.2 0-6.5 2.5-6.5 7.5v16.2Zm-78.6 60v-77.8c0-3.9-2.2-5.9-6.7-5.9h-25.4v83.7h-24.1v-83.7h-11.1v-20.3H292c13.2 0 19.8 6.9 19.8 20.8v63H323v20.3h-35.2v-.1Z"/>
   </g>
   <defs>
      <clipPath id="a">
         <path fill="#fff" d="M0 0h1024v1024H0z"/>
      </clipPath>
   </defs>
</svg>

<svg width="1024" height="1024" viewBox="0 0 1024 1024" fill="none" xmlns="http://www.w3.org/2000/svg">
<g clip-path="url(#clip0_2_2898)">
<path d="M512 1024C794.77 1024 1024 794.77 1024 512C1024 229.23 794.77 0 512 0C229.23 0 0 229.23 0 512C0 794.77 229.23 1024 512 1024Z" fill="#96DFD3"/>
<path d="M745.1 580.5H757.1V600.8H720.8V475.5H709.9V455.2H781.9C796.4 455.2 803.5 462.5 803.5 477.3V537.6C803.5 552 796.1 559.3 781.2 559.3H759.1V539H772.5C777.4 539 779.9 536.5 779.9 531.2V483.5C779.9 478.2 777.4 475.5 772.8 475.5H745.2V580.5H745.1ZM699.2 559.2H632.4C617.9 559.2 610.6 551.9 610.6 537.3V473.2H599.9V455.2H634.7V530.3C634.7 536 637.4 539 642.5 539H664V455.2H688.1V539H699.2V559.2ZM584 559.2H509.4V491.9C509.4 467.5 522.3 455.1 548.4 455.1H584.3V490H563.6V475.4H546.7C537.8 475.4 533.3 480.4 533.3 490.2V538.8H584V559.2ZM491 559.2H464.5C452.7 559.2 446.9 552.8 446.9 540.3V475.5H433.5V455.2H446.9V423.3H470.7V455.2H490.8V475.5H470.7V531.6C470.7 536.8 473.6 539.4 479.2 539.1H485.7C487.5 539.1 489.3 539.1 491.1 538.9L491 559.2ZM420.1 519.3H366.4V532.8C366.4 536.9 368.4 539 372.2 539H417.4V559.3H362.8C349.4 559.3 342.7 552.7 342.7 539.2V477.8C342.7 462.7 350.5 455.2 365.9 455.2H398.4C412.7 455.2 419.8 462.3 420 476.7V519.3H420.1ZM366.4 499.2H396.7V482.1C396.7 477.8 394.7 475.5 390.7 475.5H372.9C368.7 475.5 366.4 478 366.4 483V499.2ZM287.8 559.2V481.4C287.8 477.5 285.6 475.5 281.1 475.5H255.7V559.2H231.6V475.5H220.5V455.2H292C305.2 455.2 311.8 462.1 311.8 476V539H323V559.3H287.8V559.2Z" fill="white"/>
</g>
<defs>
<clipPath id="clip0_2_2898">
<rect width="1024" height="1024" fill="white"/>
</clipPath>
</defs>
</svg>
